wwwroot/assets/img/swift.svg

<svg xmlns="http://www.w3.org/2000/svg" viewBox="0 0 60 60" transform="translate(9,9)">
    <path fill="#f05138" d="M49.489 13.7084c-.003-.4977-.0085-.9952-.0222-1.4936-.029-1.084-.0931-2.1778-.2858-3.2502-.1955-1.0891-.515-2.1018-1.0187-3.0911a10.3867 10.3867 0 00-1.9118-2.6317A10.3843 10.3843 0 0043.6186 1.33C42.6301.827 41.6173.5073 40.5292.312c-1.073-.1933-2.1668-.257-3.2517-.2863A71.4281 71.4281 0 0035.784.0033C35.193 0 34.6015 0 34.0107 0H15.4818c-.5914 0-1.1822 0-1.773.0034a71.4451 71.4451 0 00-1.4936.0223 38.379 38.379 0 00-.8148.0299c-.8157.0393-1.6326.1114-2.437.2563-.816.1467-1.5899.363-2.3427.6743A10.3792 10.3792 0 003.242 3.2418a10.3832 10.3832 0 00-1.9119 2.6316C.8264 6.8627.5073 7.8754.3116 8.9645.1191 10.0369.0551 11.1307.026 12.2147a71.6007 71.6007 0 00-.0226 1.4936C-.0005 14.2995 0 14.8908 0 15.4818v18.5285c0 .5916-.0006 1.1823.0033 1.7738a71.42 71.42 0 00.0226 1.4928c.0292 1.0846.0931 2.1787.2857 3.2506.1957 1.0887.5148 2.1023 1.0185 3.0914a10.3712 10.3712 0 001.912 2.6313 10.381 10.381 0 002.632 1.9125c.9885.5032 2.0013.8223 3.0896 1.0178 1.0723.193 2.167.2572 3.2516.2862a71.312 71.312 0 001.4936.022c.5908.0041 1.1815.0036 1.773.0036h18.5288c.5908 0 1.1822.0006 1.7732-.0037a71.542 71.542 0 001.4935-.022c1.0849-.029 2.1787-.0932 3.2517-.2861 1.0881-.1955 2.101-.5147 3.0894-1.0178a10.3845 10.3845 0 002.632-1.9125 10.3741 10.3741 0 001.9117-2.6313c.5037-.989.8232-2.0026 1.0187-3.0914.1927-1.072.2568-2.166.2858-3.2506.0137-.4975.0192-.995.0222-1.4928.0038-.5915.0035-1.1822.0035-1.7738V15.4818c0-.591.0003-1.1823-.0034-1.7734z"/>
    <path fill="#fff" d="M39.2172 30.5506l-.0035-.004c.0547-.1864.1112-.3715.1592-.5625 2.0541-8.1841-2.9593-17.86-11.443-22.9545 3.7177 5.0399 5.3615 11.1444 3.901 16.4829-.1302.4762-.2868.9332-.4599 1.3773-.1878-.1234-.4245-.2635-.7423-.4387 0 0-8.439-5.2106-17.5857-14.4268-.24-.242 4.8774 7.3141 10.685 13.4499-2.7362-1.5356-10.3616-7.0837-15.1889-11.502.5931.9891 1.2985 1.9415 2.074 2.8585 4.0312 5.1124 9.2884 11.4203 15.5868 16.264-4.4253 2.7082-10.6784 2.9188-16.9043.0029-1.5399-.7217-2.9876-1.5925-4.3277-2.5818 2.6355 4.2154 6.6944 7.8524 11.6345 9.9757 5.8912 2.5317 11.7496 2.36 16.113.0415l-.0034.005c.0199-.0126.0452-.0264.0659-.0391.1792-.0963.357-.1944.5309-.298 2.0964-1.0882 6.2373-2.1922 8.4598 2.1323.5444 1.0584 1.701-4.5503-2.5514-9.7826z"/>
</svg>

<svg width="100%" height="100%" viewBox="0 0 120 120" version="1.1" xmlns="http://www.w3.org/2000/svg" xmlns:xlink="http://www.w3.org/1999/xlink" xml:space="preserve" xmlns:serif="http://www.serif.com/" style="fill-rule:evenodd;clip-rule:evenodd;stroke-linejoin:round;stroke-miterlimit:2;">
    <g transform="matrix(2,0,0,2,9.9409,10.1021)">
        <path d="M49.489,13.708C49.486,13.211 49.481,12.713 49.467,12.215C49.438,11.131 49.374,10.037 49.181,8.965C48.985,7.875 48.666,6.863 48.162,5.873C47.667,4.901 47.022,4.013 46.25,3.242C45.479,2.47 44.591,1.825 43.619,1.33C42.63,0.827 41.617,0.507 40.529,0.312C39.456,0.119 38.362,0.055 37.278,0.026C36.78,0.013 36.282,0.006 35.784,0.003C35.193,0 34.602,0 34.011,0L15.482,0C14.89,0 14.3,0 13.709,0.003C13.211,0.006 12.713,0.013 12.215,0.026C11.944,0.033 11.672,0.043 11.4,0.056C10.585,0.095 9.768,0.167 8.963,0.312C8.147,0.459 7.374,0.675 6.621,0.986C5.357,1.508 4.209,2.275 3.242,3.242C2.47,4.013 1.825,4.901 1.33,5.873C0.826,6.863 0.507,7.875 0.312,8.964C0.119,10.037 0.055,11.131 0.026,12.215C0.013,12.712 0.006,13.21 0.003,13.708C-0.001,14.3 0,14.891 0,15.482L0,34.01C0,34.602 -0.001,35.193 0.003,35.784C0.006,36.282 0.013,36.779 0.026,37.277C0.055,38.362 0.119,39.456 0.312,40.528C0.507,41.616 0.826,42.63 1.33,43.619C1.825,44.591 2.47,45.479 3.242,46.25C4.013,47.022 4.902,47.668 5.874,48.163C6.863,48.666 7.875,48.985 8.964,49.181C10.036,49.374 11.131,49.438 12.215,49.467C12.713,49.479 13.211,49.487 13.709,49.489C14.3,49.493 14.89,49.492 15.482,49.492L34.011,49.492C34.602,49.492 35.193,49.493 35.784,49.489C36.282,49.486 36.78,49.479 37.277,49.467C38.362,49.438 39.456,49.373 40.529,49.181C41.617,48.985 42.63,48.666 43.619,48.163C44.591,47.667 45.479,47.022 46.25,46.25C47.022,45.479 47.667,44.591 48.162,43.619C48.666,42.63 48.985,41.616 49.181,40.528C49.374,39.456 49.438,38.362 49.467,37.277C49.48,36.779 49.486,36.282 49.489,35.784C49.493,35.193 49.492,34.602 49.492,34.01L49.492,15.482C49.492,14.891 49.493,14.3 49.489,13.708Z" style="fill:rgb(240,81,56);fill-rule:nonzero;"/>
    </g>
    <g transform="matrix(2,0,0,2,9.9409,10.1021)">
        <path d="M39.217,30.551L39.214,30.547C39.268,30.36 39.325,30.175 39.373,29.984C41.427,21.8 36.414,12.124 27.93,7.03C31.648,12.069 33.291,18.174 31.831,23.513C31.701,23.989 31.544,24.446 31.371,24.89C31.183,24.766 30.946,24.626 30.629,24.451C30.629,24.451 22.19,19.241 13.043,10.024C12.803,9.782 17.92,17.338 23.728,23.474C20.992,21.939 13.366,16.391 8.539,11.972C9.132,12.961 9.838,13.914 10.613,14.831C14.644,19.943 19.901,26.251 26.2,31.095C21.775,33.803 15.521,34.013 9.296,31.098C7.756,30.376 6.308,29.505 4.968,28.516C7.603,32.731 11.662,36.368 16.602,38.491C22.494,41.023 28.352,40.851 32.715,38.533L32.712,38.538C32.732,38.525 32.757,38.512 32.778,38.499C32.957,38.403 33.135,38.305 33.309,38.201C35.405,37.113 39.546,36.009 41.769,40.333C42.313,41.392 43.47,35.783 39.217,30.551Z" style="fill:white;fill-rule:nonzero;"/>
    </g>
</svg>
